src/assets/outline/ReceiptDisscount.svg

<?xml version="1.0" encoding="UTF-8"?>
<svg width="24" height="24" viewBox="0 0 24 24" xmlns="http://www.w3.org/2000/svg">
 <path d="m12 22.75c-0.79 0-1.54-0.4-2.06-1.11l-1.01-1.35c-0.21-0.28-0.49-0.44-0.79-0.46s-0.6 0.12-0.84 0.37l-0.57-0.5 0.55 0.51c-1.45 1.54-2.55 1.42-3.08 1.21-0.54-0.21-1.45-0.9-1.45-3.12v-11.26c0-4.44 1.28-5.79 5.47-5.79h7.55c4.19 0 5.47 1.35 5.47 5.79v11.26c0 2.21-0.91 2.9-1.45 3.12-0.53 0.21-1.63 0.33-3.08-1.21-0.24-0.26-0.55-0.39-0.85-0.37s-0.59 0.18-0.8 0.46l-1.01 1.35c-0.51 0.7-1.26 1.1-2.05 1.1zm-3.92-4.42h0.13c0.74 0.04 1.44 0.43 1.91 1.06l1.02 1.35c0.49 0.65 1.24 0.65 1.73 0l1.01-1.35c0.47-0.63 1.17-1.02 1.92-1.06s1.48 0.27 2.02 0.85c0.76 0.81 1.25 0.91 1.43 0.84 0.24-0.1 0.5-0.68 0.5-1.72v-11.26c0-3.61-0.63-4.29-3.97-4.29h-7.56c-3.34 0-3.97 0.68-3.97 4.29v11.26c0 1.05 0.26 1.63 0.5 1.72 0.18 0.07 0.67-0.03 1.43-0.84 0.52-0.55 1.2-0.85 1.9-0.85z"/>
 <path d="m15 14c-0.56 0-1-0.45-1-1s0.45-1 1-1 1 0.45 1 1-0.44 1-1 1z"/>
 <path d="m9 9c-0.56 0-1-0.45-1-1s0.45-1 1-1 1 0.45 1 1-0.44 1-1 1z"/>
 <path d="m8.6298 14.55c-0.19 0-0.38-0.07-0.53-0.22-0.29-0.29-0.29-0.77 0-1.06l6.73-6.73c0.29-0.29 0.77-0.29 1.06 0s0.29 0.77 0 1.06l-6.73 6.73c-0.14 0.15-0.33 0.22-0.53 0.22z"/>
</svg>

<svg width="24" height="24" viewBox="0 0 24 24"  xmlns="http://www.w3.org/2000/svg">
<path d="M12 22.75C11.21 22.75 10.46 22.35 9.94 21.64L8.93 20.29C8.72 20.01 8.44 19.85 8.14 19.83C7.84 19.81 7.54 19.95 7.3 20.2L6.73 19.7L7.28 20.21C5.83 21.75 4.73 21.63 4.2 21.42C3.66 21.21 2.75 20.52 2.75 18.3V7.04C2.75 2.6 4.03 1.25 8.22 1.25H15.77C19.96 1.25 21.24 2.6 21.24 7.04V18.3C21.24 20.51 20.33 21.2 19.79 21.42C19.26 21.63 18.16 21.75 16.71 20.21C16.47 19.95 16.16 19.82 15.86 19.84C15.56 19.86 15.27 20.02 15.06 20.3L14.05 21.65C13.54 22.35 12.79 22.75 12 22.75ZM8.08 18.33C8.12 18.33 8.17 18.33 8.21 18.33C8.95 18.37 9.65 18.76 10.12 19.39L11.14 20.74C11.63 21.39 12.38 21.39 12.87 20.74L13.88 19.39C14.35 18.76 15.05 18.37 15.8 18.33C16.55 18.29 17.28 18.6 17.82 19.18C18.58 19.99 19.07 20.09 19.25 20.02C19.49 19.92 19.75 19.34 19.75 18.3V7.04C19.75 3.43 19.12 2.75 15.78 2.75H8.22C4.88 2.75 4.25 3.43 4.25 7.04V18.3C4.25 19.35 4.51 19.93 4.75 20.02C4.93 20.09 5.42 19.99 6.18 19.18C6.7 18.63 7.38 18.33 8.08 18.33Z" />
<path d="M15 14C14.44 14 14 13.55 14 13C14 12.45 14.45 12 15 12C15.55 12 16 12.45 16 13C16 13.55 15.56 14 15 14Z" />
<path d="M9 9C8.44 9 8 8.55 8 8C8 7.45 8.45 7 9 7C9.55 7 10 7.45 10 8C10 8.55 9.56 9 9 9Z" />
<path d="M8.62982 14.55C8.43982 14.55 8.24982 14.48 8.09982 14.33C7.80982 14.04 7.80982 13.56 8.09982 13.27L14.8298 6.54001C15.1198 6.25001 15.5998 6.25001 15.8898 6.54001C16.1798 6.83001 16.1798 7.31001 15.8898 7.60001L9.15982 14.33C9.01982 14.48 8.82982 14.55 8.62982 14.55Z" />
</svg>
